X: 28
T: O'Connell's Lamentation
M: 6/8
L: 1/8
B: "O'Neill's 28"
N: "Moderate" "collected by J. O'Neill"
Z: "Transcribed by Norbert Paap, norbertp@bdu.uva.nl"
K:Am
e|A2 d/2-c/2 AGE|Gcd eaf|agec dcA|GEF G2 E|
Adc AGE|cde/2f/2 agea|gec dcA|G3 G2||
e/2-f/2|gf/2a/2f/2 gbag|f/2e/2d/2e/2f/2d/2 e2 A|c/2B/2c/2d/2e/2f/2 gec/2A/2|GEc/2-A/2 GEG|
.AA/2B/2c/2A/2 .BB/2c/2d/2B/2|.cc/2d/2e/2f/2 gea|gec dcA|A3 A2||
A/2-B/2|cEF G2 A/2-B/2|c/2A/2c/2d/2e/2f/2 gea|g/2f/2e/2g/2f/2e/2 d/2f/2e/2d/2c/2B/2|cEF G2 A/2-B/2|
cDF G2 A/2-B/2|c/2B/2c/2d/2e/2f/2 gea|gec dcA|A3 A2||
